!!!ONB: MCCC : IWM0402_02 : Extracted Monophonic Melody
!!!COM: Mozart, Wolfgang Amadeus
!!!OPR: Piano Sonata No.2
!!!OMV: 2
!!!SCT: K.280 ; K⁶.189e
!!!ODT: 1774///
**kern
*thru
*staff1
*>A
*clefG2
*k[b-e-a-d-]
*f:
*M6/8
*MM72
=1
8.cc
16dd-
8cc
4cc
8ff
=2
4.ff[
8ff]
8ee-
8dd-
=3
[2.cc
=4
8.cc]
16a-
8g
[4.a-
=5
8.a-]
16b-
8a-
8g
8a-
8b-
=6
8.b-
16a-
8g
[4.a-
=7
8.a-]
16g
8a-
8b-
8a-
8g
=8
4.g
8f
8r
8r
=9
8a-
8r
8a-
8b-
8r
8b-
=10
4.b-
8cc
8r
8a-
=11
8dd-
8r
8cc
8ff
8r
8f
=12
4.a-
8g
8r
8ee-
=13
4.dd
8aa-
8r
8r
=14
4.gg
8bb-
8r
8r
=15
4.ccc-
8aa-
8r
8r
=16
4.eee-
8gg
8r
8r
=17
8r
8aa-
8aa-
8r
8ff
8ff
=18
8r
8ee-
8ee-
8r
8gg
8gg
=19
4aa-
16ccc
16aa-
16gg
8ff
16aa-
16gg
16ff
=20
16ff
8ee-
32ff
32ee-
32dd-
32cc
32b-
32a-
4.b-
=21
8a-
8r
8cc
8cc
8r
8dd-
=22
8.cc
16dd-
8b-
8a-
8r
8c
=23
8c
8r
8d-
8.c
16d-
8B-
=24
4.B-
8A-
8r
8r
=25
*>A
*M6/8
8.cc
16dd-
8cc
4cc
8ff
=26
4.ff[
8ff]
8ee-
8dd-
=27
[2.cc
=28
8.cc]
16a-
8g
[4.a-
=29
8.a-]
16b-
8a-
8g
8a-
8b-
=30
8.b-
16a-
8g
[4.a-
=31
8.a-]
16g
8a-
8b-
8a-
8g
=32
4.g
8f
8r
8r
=33
8a-
8r
8a-
8b-
8r
8b-
=34
4.b-
8cc
8r
8a-
=35
8dd-
8r
8cc
8ff
8r
8f
=36
4.a-
8g
8r
8ee-
=37
4.dd
8aa-
8r
8r
=38
4.gg
8bb-
8r
8r
=39
4.ccc-
8aa-
8r
8r
=40
4.eee-
8gg
8r
8r
=41
8r
8aa-
8aa-
8r
8ff
8ff
=42
8r
8ee-
8ee-
8r
8gg
8gg
=43
4aa-
16ccc
16aa-
16gg
8ff
16aa-
16gg
16ff
=44
16ff
8ee-
32ff
32ee-
32dd-
32cc
32b-
32a-
4.b-
=45
8a-
8r
8cc
8cc
8r
8dd-
=46
8.cc
16dd-
8b-
8a-
8r
8c
=47
8c
8r
8d-
8.c
16d-
8B-
=48
4.B-
8A-
8r
8r
=49
*>B
8.ee-
16ff
8ee-
4ee-
8ee-
=50
4ee-
8ff
8gg-
8r
8r
=51
4e-
8f
8g-
4r
=52
8b-
8a
8b-
8ee-:
8r
8r
=53
16r
16dd-
16cc
16dd-
16ee-
16dd-
4.gg-
=54
16gg-
16gg-
16ff
16gg-
16aa-
16gg-
4.ff[
=55
16ff]
16ff
16ee
16ff
16gg
16ff
16r
16ee-
16dd
16ee-
16ff
16ee-
=56
8dd
8r
8r
4r
8r
=57
8.g
16a-
8g
4g
8cc
=58
4.cc[
8cc]
8b-
8a-
=59
[2.g
=60
4.g_
8g]
8a-
8b-
=61
8.cc
16dd-
8cc
4cc
8ff
=62
4.ff[
8ff]
8ee-
8dd-
=63
[4.cc
4.cc]
=64
8.b-
16a-
8g
[4.a-
=65
8.a-]
16g
8a-
8b-
8a-
8g
=66
4.g
8f
8r
8r
=67
8cc
8r
8cc
8cc
8r
8cc
=68
4.cc
8b-
8r
8a-
=69
8g-
8r
8b-
8g-
8r
8f
=70
4.f
8e
8r
8cc
=71
4.b
8ff
8r
8r
=72
4.ee
8gg
8r
8r
=73
4.aa-
8ff
8r
8r
=74
4.ddd-
8ee
8r
8r
=75
8r
8ff
8ff
8r
8dd-
8dd-
=76
8r
8cc
8cc
8r
8ee
8ee
=77
4ff
16ccc
16aa-
16aa-
16gg
16ddd-
16bb-
16bb-
16gg
=78
4.ff
4.gg-
=79
8ff
8gg
8aa-
8a-
8b-
8b
=80
16cc
16dd-
16dd
16ee-
16ee
16ff
4.g
=81
8f
8r
8f
8f
8r
8dd-
=82
8.a-
16b-
8g
8f
8r
8ee-
=83
8dd-
8r
8ff
8.a-
16b-
8g
=84
4.g
8f
8r
8r
=85
*>B
8.ee-
16ff
8ee-
4ee-
8ee-
=86
4ee-
8ff
8gg-
8r
8r
=87
4e-
8f
8g-
4r
=88
8b-
8a
8b-
8ee-:
8r
8r
=89
16r
16dd-
16cc
16dd-
16ee-
16dd-
4.gg-
=90
16gg-
16gg-
16ff
16gg-
16aa-
16gg-
4.ff[
=91
16ff]
16ff
16ee
16ff
16gg
16ff
16r
16ee-
16dd
16ee-
16ff
16ee-
=92
8dd
8r
8r
4r
8r
=93
8.g
16a-
8g
4g
8cc
=94
4.cc[
8cc]
8b-
8a-
=95
[2.g
=96
4.g_
8g]
8a-
8b-
=97
8.cc
16dd-
8cc
4cc
8ff
=98
4.ff[
8ff]
8ee-
8dd-
=99
[4.cc
4.cc]
=100
8.b-
16a-
8g
[4.a-
=101
8.a-]
16g
8a-
8b-
8a-
8g
=102
4.g
8f
8r
8r
=103
8cc
8r
8cc
8cc
8r
8cc
=104
4.cc
8b-
8r
8a-
=105
8g-
8r
8b-
8g-
8r
8f
=106
4.f
8e
8r
8cc
=107
4.b
8ff
8r
8r
=108
4.ee
8gg
8r
8r
=109
4.aa-
8ff
8r
8r
=110
4.ddd-
8ee
8r
8r
=111
8r
8ff
8ff
8r
8dd-
8dd-
=112
8r
8cc
8cc
8r
8ee
8ee
=113
4ff
16ccc
16aa-
16aa-
16gg
16ddd-
16bb-
16bb-
16gg
=114
4.ff
4.gg-
=115
8ff
8gg
8aa-
8a-
8b-
8b
=116
16cc
16dd-
16dd
16ee-
16ee
16ff
4.g
=117
8f
8r
8f
8f
8r
8dd-
=118
8.a-
16b-
8g
8f
8r
8ee-
=119
8dd-
8r
8ff
8.a-
16b-
8g
=120
4.g
8f
8r
8r
==
*-
